X:350
T:W’n I was a Younker. RH.350
T:When I Was a Younker. RH.350
R:strathspey
S:Rev.R.Harrison’s MS,c1815,Cumbria
N:Younker? I have remove the field “T:?aka. RH.350”. PJH.
O:England
A:Temple Sowerby,Cumbria
Z:vmp.Simon Wilson. Review PJH, 2008.
M:6/8
L:1/8
Q:3/8=80
K:D
A|d>cB BAF|dcd D2A|dcB BAF|A>FE E2c|!
dcB BAF|dcd e2d/e/|fed BdB|B>AF E2:|!
|:F/G/|A2F AAF|d>cd D2F|A2F dcB|B>AF E2F|!
A>AF A>AF|dcd e2d/e/|fed BdB|B>AF E2:|

